apps/64/zen-browser.svg

<?xml version="1.0" encoding="UTF-8" standalone="no"?>
<svg
   id="svg3489"
   height="64"
   width="64"
   version="1.1"
   sodipodi:docname="zen-browser.svg"
   xml:space="preserve"
   inkscape:version="1.4.2 (ebf0e940d0, 2025-05-08)"
   xmlns:inkscape="http://www.inkscape.org/namespaces/inkscape"
   xmlns:sodipodi="http://sodipodi.sourceforge.net/DTD/sodipodi-0.dtd"
   xmlns:xlink="http://www.w3.org/1999/xlink"
   xmlns="http://www.w3.org/2000/svg"
   xmlns:svg="http://www.w3.org/2000/svg"
   xmlns:rdf="http://www.w3.org/1999/02/22-rdf-syntax-ns#"
   xmlns:cc="http://creativecommons.org/ns#"
   xmlns:dc="http://purl.org/dc/elements/1.1/"><sodipodi:namedview
     id="namedview1"
     pagecolor="#ffffff"
     bordercolor="#000000"
     borderopacity="0.25"
     inkscape:showpageshadow="2"
     inkscape:pageopacity="0.0"
     inkscape:pagecheckerboard="0"
     inkscape:deskcolor="#d1d1d1"
     showgrid="false"
     inkscape:zoom="2.185"
     inkscape:cx="47.597254"
     inkscape:cy="32.036613"
     inkscape:current-layer="g1"><inkscape:grid
       id="grid1"
       units="px"
       originx="0"
       originy="0"
       spacingx="0.5"
       spacingy="0.5"
       empcolor="#0099e5"
       empopacity="0.30196078"
       color="#0099e5"
       opacity="0.078431373"
       empspacing="2"
       enabled="true"
       visible="false" /><inkscape:page
       x="0"
       y="0"
       width="64"
       height="64"
       id="page8"
       margin="0"
       bleed="0" /></sodipodi:namedview><defs
     id="defs3491"><linearGradient
       id="linearGradient17"
       inkscape:collect="always"><stop
         style="stop-color:#ffffff;stop-opacity:1;"
         offset="0"
         id="stop10" /><stop
         style="stop-color:#ffffff;stop-opacity:0.25;"
         offset="0.28656161"
         id="stop11" /><stop
         style="stop-color:#ffffff;stop-opacity:0.15000001;"
         offset="0.8573131"
         id="stop12" /><stop
         style="stop-color:#ffffff;stop-opacity:0.5;"
         offset="1"
         id="stop17" /></linearGradient><linearGradient
       id="linearGradient6"
       inkscape:collect="always"><stop
         style="stop-color:#333333;stop-opacity:1;"
         offset="0"
         id="stop6" /><stop
         style="stop-color:#1a1a1a;stop-opacity:1;"
         offset="1"
         id="stop7" /></linearGradient><linearGradient
       id="linearGradient3820-7-2"><stop
         offset="0"
         style="stop-color:#000000;stop-opacity:1"
         id="stop3822-2-6" /><stop
         offset="1"
         style="stop-color:#000000;stop-opacity:0"
         id="stop3824-1-2" /></linearGradient><radialGradient
       r="62.769119"
       fy="185.29727"
       fx="99.189415"
       cy="185.29727"
       cx="99.189415"
       gradientTransform="matrix(0.3823536,7.5555777e-8,-1.8372241e-8,0.1115198,-5.9254271,36.335849)"
       gradientUnits="userSpaceOnUse"
       id="radialGradient3300"
       xlink:href="#linearGradient3820-7-2" /><radialGradient
       r="62.769119"
       fy="185.29727"
       fx="99.189415"
       cy="185.29727"
       cx="99.189415"
       gradientTransform="matrix(0.2549024,5.3967361e-8,-1.2248161e-8,0.07965545,6.7163816,44.240666)"
       gradientUnits="userSpaceOnUse"
       id="radialGradient4192"
       xlink:href="#linearGradient3820-7-2" /><linearGradient
       inkscape:collect="always"
       xlink:href="#linearGradient6"
       id="linearGradient7"
       x1="32"
       y1="3"
       x2="32"
       y2="61"
       gradientUnits="userSpaceOnUse" /><linearGradient
       inkscape:collect="always"
       xlink:href="#linearGradient17"
       id="linearGradient10"
       x1="32"
       y1="4"
       x2="32"
       y2="60"
       gradientUnits="userSpaceOnUse" /></defs><metadata
     id="metadata3494"><rdf:RDF><cc:Work
         rdf:about=""><dc:format>image/svg+xml</dc:format><dc:type
           rdf:resource="http://purl.org/dc/dcmitype/StillImage" /></cc:Work></rdf:RDF></metadata><g
     id="g4198"><path
       style="opacity:0.2;fill:url(#radialGradient3300);fill-opacity:1;stroke:none"
       id="path3818-0"
       d="m 55.999998,57.0017 a 24,6.9985714 0 1 1 -47.9999991,0 24,6.9985714 0 1 1 47.9999991,0 z" /><path
       d="m 47.999998,59.0017 a 16,4.9988822 0 1 1 -31.999999,0 16,4.9988822 0 1 1 31.999999,0 z"
       id="path4190"
       style="opacity:0.4;fill:url(#radialGradient4192);fill-opacity:1;stroke:none" /></g><path
     style="color:#000000;display:inline;overflow:visible;visibility:visible;fill:#ffffff;fill-opacity:1;fill-rule:nonzero;stroke:none;stroke-width:1;marker:none;enable-background:accumulate"
     id="path2555"
     d="M 32.000004,2.4999968 C 15.722922,2.4999968 2.5,15.722913 2.5,31.999997 2.5,48.277081 15.722922,61.500004 32.000004,61.5 48.27708,61.5 61.500016,48.277081 61.5,31.999997 61.5,15.722913 48.27708,2.4999968 32.000004,2.4999968 Z" /><path
     id="path3871"
     style="color:#000000;display:inline;overflow:visible;visibility:visible;opacity:1;fill:url(#linearGradient7);stroke:#000000;stroke-width:1.00001;stroke-opacity:0.5;marker:none;enable-background:accumulate"
     d="m 32,2.500004 c -16.277081,0 -29.499996,13.222912 -29.499996,29.499994 0,16.277082 13.222915,29.500004 29.499996,29.499998 16.277078,0 29.500006,-13.222916 29.499996,-29.499998 C 61.499996,15.722916 48.277078,2.500004 32,2.500004 Z"
     sodipodi:nodetypes="sssss" /><g
     id="g1"><path
       id="path2"
       style="opacity:0.15;fill:#000000;fill-opacity:1;stroke:#000000;stroke-width:2;stroke-linejoin:round;stroke-dasharray:none;stroke-dashoffset:0"
       d="M 32,8 C 18.192881,8 7,19.192881 7,33 7,46.807119 18.192881,58 32,58 45.807119,58 57,46.807119 57,33 57,19.192881 45.807119,8 32,8 Z m 0,4 C 43.59798,12 53,21.40202 53,33 53,44.59798 43.59798,54 32,54 20.40202,54 11,44.59798 11,33 11,21.40202 20.40202,12 32,12 Z m 0,2 C 21.50659,14 13,22.50659 13,33 13,43.49341 21.50659,52 32,52 42.49341,52 51,43.49341 51,33 51,22.50659 42.49341,14 32,14 Z m 0,3 c 8.836556,0 16,7.163444 16,16 0,8.836556 -7.163444,16 -16,16 -8.836556,0 -16,-7.163444 -16,-16 0,-8.836556 7.163444,-16 16,-16 z m 0,3 c -7.179702,0 -13,5.820298 -13,13 0,7.179702 5.820298,13 13,13 7.179702,0 13,-5.820298 13,-13 0,-7.179702 -5.820298,-13 -13,-13 z m 0,2 c 6.075132,0 11,4.924868 11,11 0,6.075132 -4.924868,11 -11,11 -6.075132,0 -11,-4.924868 -11,-11 0,-6.075132 4.924868,-11 11,-11 z"
       sodipodi:nodetypes="ssssssssssssssssssssssssssssss" /><path
       id="path3"
       style="opacity:0.15;fill:#000000;fill-opacity:1;stroke:none;stroke-width:2;stroke-linejoin:round;stroke-dasharray:none;stroke-dashoffset:0"
       d="M 32,8 C 18.192881,8 7,19.192881 7,33 7,46.807119 18.192881,58 32,58 45.807119,58 57,46.807119 57,33 57,19.192881 45.807119,8 32,8 Z m 0,4 C 43.59798,12 53,21.40202 53,33 53,44.59798 43.59798,54 32,54 20.40202,54 11,44.59798 11,33 11,21.40202 20.40202,12 32,12 Z m 0,2 C 21.50659,14 13,22.50659 13,33 13,43.49341 21.50659,52 32,52 42.49341,52 51,43.49341 51,33 51,22.50659 42.49341,14 32,14 Z m 0,3 c 8.836556,0 16,7.163444 16,16 0,8.836556 -7.163444,16 -16,16 -8.836556,0 -16,-7.163444 -16,-16 0,-8.836556 7.163444,-16 16,-16 z m 0,3 c -7.179702,0 -13,5.820298 -13,13 0,7.179702 5.820298,13 13,13 7.179702,0 13,-5.820298 13,-13 0,-7.179702 -5.820298,-13 -13,-13 z m 0,2 c 6.075132,0 11,4.924868 11,11 0,6.075132 -4.924868,11 -11,11 -6.075132,0 -11,-4.924868 -11,-11 0,-6.075132 4.924868,-11 11,-11 z"
       sodipodi:nodetypes="ssssssssssssssssssssssssssssss" /><path
       id="path1"
       style="fill:#fafafa;fill-opacity:1;stroke:none;stroke-width:0.0961538;stroke-linejoin:round;stroke-dasharray:0.288462, 0.288462"
       d="M 32,7 C 18.192881,7 7,18.192881 7,32 7,45.807119 18.192881,57 32,57 45.807119,57 57,45.807119 57,32 57,18.192881 45.807119,7 32,7 Z m 0,4 C 43.59798,11 53,20.40202 53,32 53,43.59798 43.59798,53 32,53 20.40202,53 11,43.59798 11,32 11,20.40202 20.40202,11 32,11 Z m 0,2 C 21.50659,13 13,21.50659 13,32 13,42.49341 21.50659,51 32,51 42.49341,51 51,42.49341 51,32 51,21.50659 42.49341,13 32,13 Z m 0,3 c 8.836556,0 16,7.163444 16,16 0,8.836556 -7.163444,16 -16,16 -8.836556,0 -16,-7.163444 -16,-16 0,-8.836556 7.163444,-16 16,-16 z m 0,3 c -7.179702,0 -13,5.820298 -13,13 0,7.179702 5.820298,13 13,13 7.179702,0 13,-5.820298 13,-13 0,-7.179702 -5.820298,-13 -13,-13 z m 0,2 c 6.075132,0 11,4.924868 11,11 0,6.075132 -4.924868,11 -11,11 -6.075132,0 -11,-4.924868 -11,-11 0,-6.075132 4.924868,-11 11,-11 z"
       sodipodi:nodetypes="ssssssssssssssssssssssssssssss" /></g><path
     id="path6"
     style="color:#000000;display:inline;overflow:visible;visibility:visible;opacity:0.5;fill:none;stroke:url(#linearGradient10);stroke-width:1.00001;stroke-opacity:1;marker:none;enable-background:accumulate"
     d="m 31.283203,3.5097656 c -7.658775,0.1510845 -15.16701,3.584652 -20.30344,9.2656134 -4.2473305,4.582261 -6.8692813,10.640315 -7.3706712,16.757982 -0.6424367,7.009269 1.4599006,14.258 5.8108301,19.83578 5.2116881,6.868722 13.6871941,11.112149 22.3140331,11.125942 7.303632,0.107961 14.584835,-2.757419 19.852052,-7.818487 2.453465,-2.311794 4.500058,-5.072514 5.94918,-8.037344 1.836669,-3.673787 2.842395,-7.757625 2.94758,-11.768522 C 60.73765,26.27121 58.469036,19.486899 54.367188,14.351562 49.978472,8.7743815 43.459845,4.9195301 36.4375,3.84375 34.837817,3.5965387 32.9956,3.4668303 31.283203,3.5097656 Z" /></svg>

<?xml version="1.0" encoding="UTF-8" standalone="no"?>
<svg
   id="svg3489"
   height="64"
   width="64"
   version="1.1"
   sodipodi:docname="zen-browser.svg"
   xml:space="preserve"
   inkscape:version="1.4.2 (ebf0e940d0, 2025-05-08)"
   xmlns:inkscape="http://www.inkscape.org/namespaces/inkscape"
   xmlns:sodipodi="http://sodipodi.sourceforge.net/DTD/sodipodi-0.dtd"
   xmlns:xlink="http://www.w3.org/1999/xlink"
   xmlns="http://www.w3.org/2000/svg"
   xmlns:svg="http://www.w3.org/2000/svg"
   xmlns:rdf="http://www.w3.org/1999/02/22-rdf-syntax-ns#"
   xmlns:cc="http://creativecommons.org/ns#"
   xmlns:dc="http://purl.org/dc/elements/1.1/"><sodipodi:namedview
     id="namedview1"
     pagecolor="#ffffff"
     bordercolor="#000000"
     borderopacity="0.25"
     inkscape:showpageshadow="2"
     inkscape:pageopacity="0.0"
     inkscape:pagecheckerboard="0"
     inkscape:deskcolor="#d1d1d1"
     showgrid="true"
     inkscape:zoom="2.185"
     inkscape:cx="47.597254"
     inkscape:cy="32.036613"
     inkscape:current-layer="svg3489"><inkscape:grid
       id="grid1"
       units="px"
       originx="0"
       originy="0"
       spacingx="0.5"
       spacingy="0.5"
       empcolor="#0099e5"
       empopacity="0.30196078"
       color="#0099e5"
       opacity="0.078431373"
       empspacing="2"
       enabled="true"
       visible="true" /><inkscape:page
       x="0"
       y="0"
       width="64"
       height="64"
       id="page8"
       margin="0"
       bleed="0" /></sodipodi:namedview><defs
     id="defs3491"><linearGradient
       id="linearGradient17"
       inkscape:collect="always"><stop
         style="stop-color:#ffffff;stop-opacity:1;"
         offset="0"
         id="stop10" /><stop
         style="stop-color:#ffffff;stop-opacity:0.25;"
         offset="0.28656161"
         id="stop11" /><stop
         style="stop-color:#ffffff;stop-opacity:0.15000001;"
         offset="0.8573131"
         id="stop12" /><stop
         style="stop-color:#ffffff;stop-opacity:0.5;"
         offset="1"
         id="stop17" /></linearGradient><linearGradient
       id="linearGradient6"
       inkscape:collect="always"><stop
         style="stop-color:#333333;stop-opacity:1;"
         offset="0"
         id="stop6" /><stop
         style="stop-color:#1a1a1a;stop-opacity:1;"
         offset="1"
         id="stop7" /></linearGradient><linearGradient
       id="linearGradient3820-7-2"><stop
         offset="0"
         style="stop-color:#000000;stop-opacity:1"
         id="stop3822-2-6" /><stop
         offset="1"
         style="stop-color:#000000;stop-opacity:0"
         id="stop3824-1-2" /></linearGradient><radialGradient
       r="62.769119"
       fy="185.29727"
       fx="99.189415"
       cy="185.29727"
       cx="99.189415"
       gradientTransform="matrix(0.3823536,7.5555777e-8,-1.8372241e-8,0.1115198,-5.9254271,36.335849)"
       gradientUnits="userSpaceOnUse"
       id="radialGradient3300"
       xlink:href="#linearGradient3820-7-2" /><radialGradient
       r="62.769119"
       fy="185.29727"
       fx="99.189415"
       cy="185.29727"
       cx="99.189415"
       gradientTransform="matrix(0.2549024,5.3967361e-8,-1.2248161e-8,0.07965545,6.7163816,44.240666)"
       gradientUnits="userSpaceOnUse"
       id="radialGradient4192"
       xlink:href="#linearGradient3820-7-2" /><linearGradient
       inkscape:collect="always"
       xlink:href="#linearGradient6"
       id="linearGradient7"
       x1="32"
       y1="3"
       x2="32"
       y2="61"
       gradientUnits="userSpaceOnUse" /><linearGradient
       inkscape:collect="always"
       xlink:href="#linearGradient17"
       id="linearGradient10"
       x1="32"
       y1="4"
       x2="32"
       y2="60"
       gradientUnits="userSpaceOnUse" /></defs><metadata
     id="metadata3494"><rdf:RDF><cc:Work
         rdf:about=""><dc:format>image/svg+xml</dc:format><dc:type
           rdf:resource="http://purl.org/dc/dcmitype/StillImage" /></cc:Work></rdf:RDF></metadata><g
     id="g4198"><path
       style="opacity:0.2;fill:url(#radialGradient3300);fill-opacity:1;stroke:none"
       id="path3818-0"
       d="m 55.999998,57.0017 a 24,6.9985714 0 1 1 -47.9999991,0 24,6.9985714 0 1 1 47.9999991,0 z" /><path
       d="m 47.999998,59.0017 a 16,4.9988822 0 1 1 -31.999999,0 16,4.9988822 0 1 1 31.999999,0 z"
       id="path4190"
       style="opacity:0.4;fill:url(#radialGradient4192);fill-opacity:1;stroke:none" /></g><path
     style="color:#000000;display:inline;overflow:visible;visibility:visible;fill:#ffffff;fill-opacity:1;fill-rule:nonzero;stroke:none;stroke-width:1;marker:none;enable-background:accumulate"
     id="path2555"
     d="M 32.000004,2.4999968 C 15.722922,2.4999968 2.5,15.722913 2.5,31.999997 2.5,48.277081 15.722922,61.500004 32.000004,61.5 48.27708,61.5 61.500016,48.277081 61.5,31.999997 61.5,15.722913 48.27708,2.4999968 32.000004,2.4999968 Z" /><path
     id="path3871"
     style="color:#000000;display:inline;overflow:visible;visibility:visible;opacity:1;fill:url(#linearGradient7);stroke:#000000;stroke-width:1.00001;stroke-opacity:0.5;marker:none;enable-background:accumulate"
     d="m 32,2.500004 c -16.277081,0 -29.499996,13.222912 -29.499996,29.499994 0,16.277082 13.222915,29.500004 29.499996,29.499998 16.277078,0 29.500006,-13.222916 29.499996,-29.499998 C 61.499996,15.722916 48.277078,2.500004 32,2.500004 Z"
     sodipodi:nodetypes="sssss" /><g
     id="g1"><path
       id="path2"
       style="fill:#000000;fill-opacity:1;stroke:#000000;stroke-width:2;stroke-linejoin:round;stroke-dasharray:none;stroke-dashoffset:0;opacity:0.15"
       d="M 32,8 A 25,25 0 0 0 7,33 25,25 0 0 0 32,58 25,25 0 0 0 57,33 25,25 0 0 0 32,8 Z m 0,4 A 21,21 0 0 1 53,33 21,21 0 0 1 32,54 21,21 0 0 1 11,33 21,21 0 0 1 32,12 Z m 0,2 A 19,19 0 0 0 13,33 19,19 0 0 0 32,52 19,19 0 0 0 51,33 19,19 0 0 0 32,14 Z m 0,3 A 16,16 0 0 1 48,33 16,16 0 0 1 32,49 16,16 0 0 1 16,33 16,16 0 0 1 32,17 Z m 0,3 A 13,13 0 0 0 19,33 13,13 0 0 0 32,46 13,13 0 0 0 45,33 13,13 0 0 0 32,20 Z m 0,2 A 11,11 0 0 1 43,33 11,11 0 0 1 32,44 11,11 0 0 1 21,33 11,11 0 0 1 32,22 Z m 0,4 a 7,7 0 0 0 -7,7 7,7 0 0 0 7,7 7,7 0 0 0 7,-7 7,7 0 0 0 -7,-7 z m 0,1 a 6,6 0 0 1 6,6 6,6 0 0 1 -6,6 6,6 0 0 1 -6,-6 6,6 0 0 1 6,-6 z" /><path
       id="path3"
       style="fill:#000000;fill-opacity:1;stroke:none;stroke-width:2;stroke-linejoin:round;stroke-dasharray:none;stroke-dashoffset:0;opacity:0.15"
       d="M 32,8 A 25,25 0 0 0 7,33 25,25 0 0 0 32,58 25,25 0 0 0 57,33 25,25 0 0 0 32,8 Z m 0,4 A 21,21 0 0 1 53,33 21,21 0 0 1 32,54 21,21 0 0 1 11,33 21,21 0 0 1 32,12 Z m 0,2 A 19,19 0 0 0 13,33 19,19 0 0 0 32,52 19,19 0 0 0 51,33 19,19 0 0 0 32,14 Z m 0,3 A 16,16 0 0 1 48,33 16,16 0 0 1 32,49 16,16 0 0 1 16,33 16,16 0 0 1 32,17 Z m 0,3 A 13,13 0 0 0 19,33 13,13 0 0 0 32,46 13,13 0 0 0 45,33 13,13 0 0 0 32,20 Z m 0,2 A 11,11 0 0 1 43,33 11,11 0 0 1 32,44 11,11 0 0 1 21,33 11,11 0 0 1 32,22 Z m 0,4 a 7,7 0 0 0 -7,7 7,7 0 0 0 7,7 7,7 0 0 0 7,-7 7,7 0 0 0 -7,-7 z m 0,1 a 6,6 0 0 1 6,6 6,6 0 0 1 -6,6 6,6 0 0 1 -6,-6 6,6 0 0 1 6,-6 z" /><path
       id="path1"
       style="fill:#fafafa;fill-opacity:1;stroke:none;stroke-width:0.0961538;stroke-linejoin:round;stroke-dasharray:0.288462, 0.288462"
       d="M 32 7 A 25 25 0 0 0 7 32 A 25 25 0 0 0 32 57 A 25 25 0 0 0 57 32 A 25 25 0 0 0 32 7 z M 32 11 A 21 21 0 0 1 53 32 A 21 21 0 0 1 32 53 A 21 21 0 0 1 11 32 A 21 21 0 0 1 32 11 z M 32 13 A 19 19 0 0 0 13 32 A 19 19 0 0 0 32 51 A 19 19 0 0 0 51 32 A 19 19 0 0 0 32 13 z M 32 16 A 16 16 0 0 1 48 32 A 16 16 0 0 1 32 48 A 16 16 0 0 1 16 32 A 16 16 0 0 1 32 16 z M 32 19 A 13 13 0 0 0 19 32 A 13 13 0 0 0 32 45 A 13 13 0 0 0 45 32 A 13 13 0 0 0 32 19 z M 32 21 A 11 11 0 0 1 43 32 A 11 11 0 0 1 32 43 A 11 11 0 0 1 21 32 A 11 11 0 0 1 32 21 z M 32 25 A 7 7 0 0 0 25 32 A 7 7 0 0 0 32 39 A 7 7 0 0 0 39 32 A 7 7 0 0 0 32 25 z M 32 26 A 6 6 0 0 1 38 32 A 6 6 0 0 1 32 38 A 6 6 0 0 1 26 32 A 6 6 0 0 1 32 26 z " /></g><path
     id="path6"
     style="color:#000000;display:inline;overflow:visible;visibility:visible;opacity:0.5;fill:none;stroke:url(#linearGradient10);stroke-width:1.00001;stroke-opacity:1;marker:none;enable-background:accumulate"
     d="m 31.283203,3.5097656 c -7.658775,0.1510845 -15.16701,3.584652 -20.30344,9.2656134 -4.2473305,4.582261 -6.8692813,10.640315 -7.3706712,16.757982 -0.6424367,7.009269 1.4599006,14.258 5.8108301,19.83578 5.2116881,6.868722 13.6871941,11.112149 22.3140331,11.125942 7.303632,0.107961 14.584835,-2.757419 19.852052,-7.818487 2.453465,-2.311794 4.500058,-5.072514 5.94918,-8.037344 1.836669,-3.673787 2.842395,-7.757625 2.94758,-11.768522 C 60.73765,26.27121 58.469036,19.486899 54.367188,14.351562 49.978472,8.7743815 43.459845,4.9195301 36.4375,3.84375 34.837817,3.5965387 32.9956,3.4668303 31.283203,3.5097656 Z" /></svg>
